images/3246064.svg

<?xml version="1.0" encoding="UTF-8"?>
<svg xmlns="http://www.w3.org/2000/svg" xmlns:xlink="http://www.w3.org/1999/xlink" width="300pt" height="300pt" viewBox="0 0 300 300" version="1.1">
<defs>
<g>
<symbol overflow="visible" id="glyph0-0">
<path style="stroke:none;" d="M 0.453125 1.59375 L 0.453125 -6.34375 L 4.953125 -6.34375 L 4.953125 1.59375 Z M 0.953125 1.09375 L 4.453125 1.09375 L 4.453125 -5.84375 L 0.953125 -5.84375 Z M 0.953125 1.09375 "/>
</symbol>
<symbol overflow="visible" id="glyph0-1">
<path style="stroke:none;" d="M 3.546875 -5.953125 C 2.898438 -5.953125 2.382812 -5.710938 2 -5.234375 C 1.625 -4.753906 1.4375 -4.101562 1.4375 -3.28125 C 1.4375 -2.445312 1.625 -1.789062 2 -1.3125 C 2.382812 -0.832031 2.898438 -0.59375 3.546875 -0.59375 C 4.191406 -0.59375 4.703125 -0.832031 5.078125 -1.3125 C 5.453125 -1.789062 5.640625 -2.445312 5.640625 -3.28125 C 5.640625 -4.101562 5.453125 -4.753906 5.078125 -5.234375 C 4.703125 -5.710938 4.191406 -5.953125 3.546875 -5.953125 Z M 3.546875 -6.6875 C 4.460938 -6.6875 5.195312 -6.375 5.75 -5.75 C 6.300781 -5.132812 6.578125 -4.3125 6.578125 -3.28125 C 6.578125 -2.238281 6.300781 -1.410156 5.75 -0.796875 C 5.195312 -0.179688 4.460938 0.125 3.546875 0.125 C 2.617188 0.125 1.878906 -0.179688 1.328125 -0.796875 C 0.773438 -1.410156 0.5 -2.238281 0.5 -3.28125 C 0.5 -4.3125 0.773438 -5.132812 1.328125 -5.75 C 1.878906 -6.375 2.617188 -6.6875 3.546875 -6.6875 Z M 3.546875 -6.6875 "/>
</symbol>
<symbol overflow="visible" id="glyph0-2">
<path style="stroke:none;" d="M 0.890625 -6.5625 L 1.765625 -6.5625 L 1.765625 -3.875 L 5 -3.875 L 5 -6.5625 L 5.890625 -6.5625 L 5.890625 0 L 5 0 L 5 -3.125 L 1.765625 -3.125 L 1.765625 0 L 0.890625 0 Z M 0.890625 -6.5625 "/>
</symbol>
</g>
</defs>
<g id="surface31457">
<rect x="0" y="0" width="300" height="300" style="fill:rgb(100%,100%,100%);fill-opacity:1;stroke:none;"/>
<path style="fill:none;stroke-width:1;stroke-linecap:butt;stroke-linejoin:miter;stroke:rgb(0%,0%,0%);stroke-opacity:1;stroke-miterlimit:10;" d="M 211.8125 148.230469 L 211.8125 148.230469 M 210.375 150.863281 L 211.363281 151.195312 M 208.933594 153.496094 L 210.910156 154.164062 M 207.496094 156.128906 L 210.460938 157.128906 M 206.058594 158.757812 L 210.007812 160.09375 M 204.617188 161.390625 L 209.558594 163.058594 M 203.179688 164.023438 L 209.105469 166.027344 M 203.046875 164.265625 L 209.066406 166.296875 "/>
<path style="fill:none;stroke-width:1.2;stroke-linecap:butt;stroke-linejoin:miter;stroke:rgb(0%,0%,0%);stroke-opacity:1;stroke-miterlimit:10;" d="M 211.8125 148.230469 L 223.699219 161.742188 "/>
<path style="fill:none;stroke-width:1.2;stroke-linecap:butt;stroke-linejoin:miter;stroke:rgb(0%,0%,0%);stroke-opacity:1;stroke-miterlimit:10;" d="M 217.574219 131.179688 L 211.8125 148.230469 "/>
<path style="fill:none;stroke-width:1.2;stroke-linecap:butt;stroke-linejoin:miter;stroke:rgb(0%,0%,0%);stroke-opacity:1;stroke-miterlimit:10;" d="M 194.167969 151.769531 L 211.8125 148.230469 "/>
<path style="fill:none;stroke-width:1.2;stroke-linecap:butt;stroke-linejoin:miter;stroke:rgb(0%,0%,0%);stroke-opacity:1;stroke-miterlimit:10;" d="M 223.699219 161.742188 L 241.347656 158.203125 "/>
<path style="fill:none;stroke-width:1.2;stroke-linecap:butt;stroke-linejoin:miter;stroke:rgb(0%,0%,0%);stroke-opacity:1;stroke-miterlimit:10;" d="M 241.347656 158.203125 L 247.105469 141.152344 "/>
<path style="fill:none;stroke-width:1.2;stroke-linecap:butt;stroke-linejoin:miter;stroke:rgb(0%,0%,0%);stroke-opacity:1;stroke-miterlimit:10;" d="M 247.519531 143.230469 L 256.34375 141.460938 "/>
<path style="fill:none;stroke-width:1.2;stroke-linecap:butt;stroke-linejoin:miter;stroke:rgb(100%,0%,0%);stroke-opacity:1;stroke-miterlimit:10;" d="M 256.34375 141.460938 L 265.167969 139.691406 "/>
<path style="fill:none;stroke-width:1.2;stroke-linecap:butt;stroke-linejoin:miter;stroke:rgb(0%,0%,0%);stroke-opacity:1;stroke-miterlimit:10;" d="M 246.6875 139.078125 L 255.511719 137.308594 "/>
<path style="fill:none;stroke-width:1.2;stroke-linecap:butt;stroke-linejoin:miter;stroke:rgb(100%,0%,0%);stroke-opacity:1;stroke-miterlimit:10;" d="M 255.511719 137.308594 L 264.332031 135.539062 "/>
<path style="fill:none;stroke-width:1.2;stroke-linecap:butt;stroke-linejoin:miter;stroke:rgb(0%,0%,0%);stroke-opacity:1;stroke-miterlimit:10;" d="M 247.105469 141.152344 L 235.21875 127.640625 "/>
<path style=" stroke:none;fill-rule:nonzero;fill:rgb(100%,100%,100%);fill-opacity:1;" d="M 260.75 132.117188 L 268.75 132.117188 L 268.75 143.117188 L 260.75 143.117188 Z M 260.75 132.117188 "/>
<g style="fill:rgb(100%,0%,0%);fill-opacity:1;">
  <use xlink:href="#glyph0-1" x="260.75" y="140.780273"/>
</g>
<path style="fill:none;stroke-width:1.2;stroke-linecap:butt;stroke-linejoin:miter;stroke:rgb(0%,0%,0%);stroke-opacity:1;stroke-miterlimit:10;" d="M 235.21875 127.640625 L 217.574219 131.179688 "/>
<path style="fill:none;stroke-width:1.2;stroke-linecap:butt;stroke-linejoin:miter;stroke:rgb(0%,0%,0%);stroke-opacity:1;stroke-miterlimit:10;" d="M 234.285156 132.148438 L 220.167969 134.976562 "/>
<path style="fill:none;stroke-width:1.2;stroke-linecap:butt;stroke-linejoin:miter;stroke:rgb(0%,0%,0%);stroke-opacity:1;stroke-miterlimit:10;" d="M 217.574219 131.179688 L 205.683594 117.667969 "/>
<path style="fill:none;stroke-width:1.2;stroke-linecap:butt;stroke-linejoin:miter;stroke:rgb(0%,0%,0%);stroke-opacity:1;stroke-miterlimit:10;" d="M 205.683594 117.667969 L 188.039062 121.207031 "/>
<path style=" stroke:none;fill-rule:nonzero;fill:rgb(0%,0%,0%);fill-opacity:1;" d="M 182.28125 138.257812 L 191.050781 122.222656 L 185.03125 120.191406 Z M 182.28125 138.257812 "/>
<path style="fill:none;stroke-width:1.2;stroke-linecap:butt;stroke-linejoin:miter;stroke:rgb(0%,0%,0%);stroke-opacity:1;stroke-miterlimit:10;" d="M 182.28125 138.257812 L 194.167969 151.769531 "/>
<path style="fill:none;stroke-width:1.2;stroke-linecap:butt;stroke-linejoin:miter;stroke:rgb(0%,0%,0%);stroke-opacity:1;stroke-miterlimit:10;" d="M 164.636719 141.796875 L 182.28125 138.257812 "/>
<path style=" stroke:none;fill-rule:nonzero;fill:rgb(0%,0%,0%);fill-opacity:1;" d="M 194.167969 151.769531 L 185.402344 167.804688 L 191.417969 169.835938 Z M 194.167969 151.769531 "/>
<path style="fill:none;stroke-width:1.2;stroke-linecap:butt;stroke-linejoin:miter;stroke:rgb(0%,0%,0%);stroke-opacity:1;stroke-miterlimit:10;" d="M 188.410156 168.820312 L 170.765625 172.359375 "/>
<path style=" stroke:none;fill-rule:nonzero;fill:rgb(0%,0%,0%);fill-opacity:1;" d="M 188.410156 168.820312 L 197.914062 184.429688 L 202.683594 180.234375 Z M 188.410156 168.820312 "/>
<path style="fill:none;stroke-width:1.2;stroke-linecap:butt;stroke-linejoin:miter;stroke:rgb(0%,0%,0%);stroke-opacity:1;stroke-miterlimit:10;" d="M 170.765625 172.359375 L 158.878906 158.847656 "/>
<path style="fill:none;stroke-width:1.2;stroke-linecap:butt;stroke-linejoin:miter;stroke:rgb(0%,0%,0%);stroke-opacity:1;stroke-miterlimit:10;" d="M 158.878906 158.847656 L 164.636719 141.796875 "/>
<path style="fill:none;stroke-width:1;stroke-linecap:butt;stroke-linejoin:miter;stroke:rgb(0%,0%,0%);stroke-opacity:1;stroke-miterlimit:10;" d="M 158.878906 158.847656 L 158.878906 158.847656 M 157.484375 161.503906 L 158.476562 161.820312 M 156.09375 164.160156 L 158.078125 164.792969 M 154.699219 166.816406 L 157.679688 167.765625 M 153.304688 169.472656 L 157.28125 170.738281 M 151.914062 172.128906 L 156.878906 173.710938 M 150.519531 174.789062 L 156.480469 176.6875 M 150.390625 175.03125 L 156.445312 176.957031 "/>
<path style="fill:none;stroke-width:1.2;stroke-linecap:butt;stroke-linejoin:miter;stroke:rgb(0%,0%,0%);stroke-opacity:1;stroke-miterlimit:10;" d="M 140.882812 158.636719 L 158.878906 158.847656 "/>
<path style="fill:none;stroke-width:1;stroke-linecap:butt;stroke-linejoin:miter;stroke:rgb(0%,0%,0%);stroke-opacity:1;stroke-miterlimit:10;" d="M 164.636719 141.796875 L 164.636719 141.796875 M 162.578125 139.613281 L 161.957031 140.449219 M 160.519531 137.429688 L 159.273438 139.105469 M 158.460938 135.25 L 156.59375 137.757812 M 156.402344 133.066406 L 153.910156 136.414062 M 154.34375 130.882812 L 151.230469 135.066406 M 152.285156 128.703125 L 148.550781 133.722656 M 152.097656 128.503906 L 148.304688 133.597656 "/>
<path style="fill:none;stroke-width:1.2;stroke-linecap:butt;stroke-linejoin:miter;stroke:rgb(0%,0%,0%);stroke-opacity:1;stroke-miterlimit:10;" d="M 150.199219 131.050781 L 135.519531 141.460938 "/>
<path style="fill:none;stroke-width:1.2;stroke-linecap:butt;stroke-linejoin:miter;stroke:rgb(0%,0%,0%);stroke-opacity:1;stroke-miterlimit:10;" d="M 135.519531 141.460938 L 140.882812 158.636719 "/>
<path style="fill:none;stroke-width:1;stroke-linecap:butt;stroke-linejoin:miter;stroke:rgb(0%,0%,0%);stroke-opacity:1;stroke-miterlimit:10;" d="M 140.882812 158.636719 L 140.882812 158.636719 M 137.882812 158.707031 L 138.089844 159.730469 M 134.882812 158.777344 L 135.292969 160.824219 M 131.886719 158.847656 L 132.5 161.914062 M 128.886719 158.917969 L 129.707031 163.007812 M 125.886719 158.988281 L 126.910156 164.097656 M 122.886719 159.054688 L 124.117188 165.191406 M 122.613281 159.0625 L 123.863281 165.289062 "/>
<path style="fill:none;stroke-width:1.2;stroke-linecap:butt;stroke-linejoin:miter;stroke:rgb(0%,0%,0%);stroke-opacity:1;stroke-miterlimit:10;" d="M 140.882812 158.636719 L 140.621094 167.632812 "/>
<path style="fill:none;stroke-width:1.2;stroke-linecap:butt;stroke-linejoin:miter;stroke:rgb(100%,0%,0%);stroke-opacity:1;stroke-miterlimit:10;" d="M 140.621094 167.632812 L 140.359375 176.628906 "/>
<path style="fill:none;stroke-width:1.2;stroke-linecap:butt;stroke-linejoin:miter;stroke:rgb(0%,0%,0%);stroke-opacity:1;stroke-miterlimit:10;" d="M 121.230469 161.5 L 118.351562 170.023438 "/>
<path style="fill:none;stroke-width:1.2;stroke-linecap:butt;stroke-linejoin:miter;stroke:rgb(100%,0%,0%);stroke-opacity:1;stroke-miterlimit:10;" d="M 118.351562 170.023438 L 115.472656 178.550781 "/>
<path style="fill:none;stroke-width:1.2;stroke-linecap:butt;stroke-linejoin:miter;stroke:rgb(0%,0%,0%);stroke-opacity:1;stroke-miterlimit:10;" d="M 125.242188 162.855469 L 122.363281 171.378906 "/>
<path style="fill:none;stroke-width:1.2;stroke-linecap:butt;stroke-linejoin:miter;stroke:rgb(100%,0%,0%);stroke-opacity:1;stroke-miterlimit:10;" d="M 122.363281 171.378906 L 119.484375 179.90625 "/>
<path style="fill:none;stroke-width:1.2;stroke-linecap:butt;stroke-linejoin:miter;stroke:rgb(0%,0%,0%);stroke-opacity:1;stroke-miterlimit:10;" d="M 123.238281 162.175781 L 111.351562 148.664062 "/>
<path style=" stroke:none;fill-rule:nonzero;fill:rgb(100%,100%,100%);fill-opacity:1;" d="M 109.480469 173.726562 L 117.480469 173.726562 L 117.480469 184.726562 L 109.480469 184.726562 Z M 109.480469 173.726562 "/>
<g style="fill:rgb(100%,0%,0%);fill-opacity:1;">
  <use xlink:href="#glyph0-1" x="109.480469" y="182.389648"/>
</g>
<path style="fill:none;stroke-width:1.2;stroke-linecap:butt;stroke-linejoin:miter;stroke:rgb(0%,0%,0%);stroke-opacity:1;stroke-miterlimit:10;" d="M 111.351562 148.664062 L 102.527344 150.433594 "/>
<path style="fill:none;stroke-width:1.2;stroke-linecap:butt;stroke-linejoin:miter;stroke:rgb(100%,0%,0%);stroke-opacity:1;stroke-miterlimit:10;" d="M 102.527344 150.433594 L 93.703125 152.203125 "/>
<path style="fill:none;stroke-width:1.2;stroke-linecap:butt;stroke-linejoin:miter;stroke:rgb(100%,0%,0%);stroke-opacity:1;stroke-miterlimit:10;" d="M 93.703125 152.203125 L 87.761719 145.445312 "/>
<path style="fill:none;stroke-width:1.2;stroke-linecap:butt;stroke-linejoin:miter;stroke:rgb(0%,0%,0%);stroke-opacity:1;stroke-miterlimit:10;" d="M 87.761719 145.445312 L 81.816406 138.691406 "/>
<path style=" stroke:none;fill-rule:nonzero;fill:rgb(100%,100%,100%);fill-opacity:1;" d="M 89.703125 146.703125 L 97.703125 146.703125 L 97.703125 157.703125 L 89.703125 157.703125 Z M 89.703125 146.703125 "/>
<g style="fill:rgb(100%,0%,0%);fill-opacity:1;">
  <use xlink:href="#glyph0-1" x="89.703125" y="155.366211"/>
</g>
<path style="fill:none;stroke-width:1.2;stroke-linecap:butt;stroke-linejoin:miter;stroke:rgb(0%,0%,0%);stroke-opacity:1;stroke-miterlimit:10;" d="M 83.824219 139.367188 L 86.703125 130.84375 "/>
<path style="fill:none;stroke-width:1.2;stroke-linecap:butt;stroke-linejoin:miter;stroke:rgb(100%,0%,0%);stroke-opacity:1;stroke-miterlimit:10;" d="M 86.703125 130.84375 L 89.582031 122.316406 "/>
<path style="fill:none;stroke-width:1.2;stroke-linecap:butt;stroke-linejoin:miter;stroke:rgb(0%,0%,0%);stroke-opacity:1;stroke-miterlimit:10;" d="M 79.8125 138.011719 L 82.691406 129.488281 "/>
<path style="fill:none;stroke-width:1.2;stroke-linecap:butt;stroke-linejoin:miter;stroke:rgb(100%,0%,0%);stroke-opacity:1;stroke-miterlimit:10;" d="M 82.691406 129.488281 L 85.570312 120.960938 "/>
<path style="fill:none;stroke-width:1.2;stroke-linecap:butt;stroke-linejoin:miter;stroke:rgb(0%,0%,0%);stroke-opacity:1;stroke-miterlimit:10;" d="M 81.816406 138.691406 L 64.171875 142.230469 "/>
<path style=" stroke:none;fill-rule:nonzero;fill:rgb(100%,100%,100%);fill-opacity:1;" d="M 83.578125 116.140625 L 91.578125 116.140625 L 91.578125 127.140625 L 83.578125 127.140625 Z M 83.578125 116.140625 "/>
<g style="fill:rgb(100%,0%,0%);fill-opacity:1;">
  <use xlink:href="#glyph0-1" x="83.578125" y="124.803711"/>
</g>
<path style="fill:none;stroke-width:1.2;stroke-linecap:butt;stroke-linejoin:miter;stroke:rgb(0%,0%,0%);stroke-opacity:1;stroke-miterlimit:10;" d="M 64.171875 142.230469 L 56.664062 158.585938 "/>
<path style="fill:none;stroke-width:1.2;stroke-linecap:butt;stroke-linejoin:miter;stroke:rgb(0%,0%,0%);stroke-opacity:1;stroke-miterlimit:10;" d="M 50.9375 130.035156 L 64.171875 142.230469 "/>
<path style="fill:none;stroke-width:1.2;stroke-linecap:butt;stroke-linejoin:miter;stroke:rgb(0%,0%,0%);stroke-opacity:1;stroke-miterlimit:10;" d="M 56.664062 158.585938 L 38.789062 156.496094 "/>
<path style="fill:none;stroke-width:1.2;stroke-linecap:butt;stroke-linejoin:miter;stroke:rgb(0%,0%,0%);stroke-opacity:1;stroke-miterlimit:10;" d="M 38.789062 156.496094 L 35.25 138.851562 "/>
<path style="fill:none;stroke-width:1.2;stroke-linecap:butt;stroke-linejoin:miter;stroke:rgb(0%,0%,0%);stroke-opacity:1;stroke-miterlimit:10;" d="M 35.25 138.851562 L 50.9375 130.035156 "/>
<path style=" stroke:none;fill-rule:nonzero;fill:rgb(100%,100%,100%);fill-opacity:1;" d="M 133.359375 171.128906 L 148.359375 171.128906 L 148.359375 182.128906 L 133.359375 182.128906 Z M 133.359375 171.128906 "/>
<g style="fill:rgb(100%,0%,0%);fill-opacity:1;">
  <use xlink:href="#glyph0-1" x="133.359375" y="179.791992"/>
  <use xlink:href="#glyph0-2" x="140.701172" y="179.791992"/>
</g>
<path style=" stroke:none;fill-rule:nonzero;fill:rgb(100%,100%,100%);fill-opacity:1;" d="M 193.296875 176.832031 L 208.296875 176.832031 L 208.296875 187.832031 L 193.296875 187.832031 Z M 193.296875 176.832031 "/>
<g style="fill:rgb(100%,0%,0%);fill-opacity:1;">
  <use xlink:href="#glyph0-1" x="193.296875" y="185.495117"/>
  <use xlink:href="#glyph0-2" x="200.638672" y="185.495117"/>
</g>
</g>
</svg>

<svg xmlns="http://www.w3.org/2000/svg" xmlns:xlink="http://www.w3.org/1999/xlink" width="300pt" height="300pt" viewBox="0 0 300 300"><defs><symbol overflow="visible"><path d="M.453 1.594v-7.938h4.5v7.938zm.5-.5h3.5v-6.938h-3.5zm0 0"/></symbol><symbol overflow="visible" id="a"><path d="M3.547-5.953c-.65 0-1.164.242-1.547.72-.375.48-.563 1.13-.563 1.952 0 .835.188 1.49.563 1.967.383.48.898.72 1.547.72.644 0 1.156-.24 1.53-.72.376-.476.564-1.132.564-1.968 0-.822-.187-1.474-.562-1.954-.375-.477-.887-.72-1.53-.72zm0-.734c.914 0 1.648.312 2.203.937.55.617.828 1.438.828 2.47 0 1.042-.277 1.87-.828 2.483-.555.617-1.29.922-2.203.922-.93 0-1.668-.305-2.22-.922C.774-1.41.5-2.237.5-3.28c0-1.033.273-1.853.828-2.47.55-.625 1.29-.938 2.22-.938zm0 0"/></symbol><symbol overflow="visible" id="b"><path d="M.89-6.563h.876v2.688H5v-2.688h.89V0H5v-3.125H1.766V0H.89zm0 0"/></symbol></defs><g><path fill="#fff" d="M0 0h300v300H0z"/><path d="M211.813 148.23m-1.438 2.633l.988.332m-2.43 2.3l1.977.67m-3.414 1.964l2.965 1m-4.4 1.628l3.948 1.336m-5.39 1.297l4.94 1.67m-6.378.963l5.925 2.004m-6.058-1.76l6.02 2.03" stroke="#000" stroke-miterlimit="10" fill="none"/><path d="M211.813 148.23l11.886 13.512M217.574 131.18l-5.762 17.05M194.168 151.77l17.644-3.54M223.7 161.742l17.648-3.54M241.348 158.203l5.757-17.05M247.52 143.23l8.824-1.77" stroke-width="1.2" stroke="#000" stroke-miterlimit="10" fill="none"/><path d="M256.344 141.46l8.824-1.77" stroke-width="1.2" stroke="#f00" stroke-miterlimit="10" fill="none"/><path d="M246.688 139.078l8.824-1.77" stroke-width="1.2" stroke="#000" stroke-miterlimit="10" fill="none"/><path d="M255.512 137.31l8.82-1.77" stroke-width="1.2" stroke="#f00" stroke-miterlimit="10" fill="none"/><path d="M247.105 141.152l-11.886-13.51" stroke-width="1.2" stroke="#000" stroke-miterlimit="10" fill="none"/><path d="M260.75 132.117h8v11h-8zm0 0" fill="#fff"/><use xlink:href="#a" x="260.75" y="140.78" fill="#f00"/><path d="M235.22 127.64l-17.646 3.54M234.285 132.148l-14.117 2.83M217.574 131.18l-11.89-13.512M205.684 117.668l-17.645 3.54" stroke-width="1.2" stroke="#000" stroke-miterlimit="10" fill="none"/><path d="M182.28 138.258l8.77-16.035-6.02-2.032zm0 0"/><path d="M182.28 138.258l11.888 13.512M164.637 141.797l17.644-3.54" stroke-width="1.2" stroke="#000" stroke-miterlimit="10" fill="none"/><path d="M194.168 151.77l-8.766 16.035 6.016 2.03zm0 0"/><path d="M188.41 168.82l-17.644 3.54" stroke-width="1.2" stroke="#000" stroke-miterlimit="10" fill="none"/><path d="M188.41 168.82l9.504 15.61 4.77-4.196zm0 0"/><path d="M170.766 172.36l-11.887-13.512M158.88 158.848l5.757-17.05" stroke-width="1.2" stroke="#000" stroke-miterlimit="10" fill="none"/><path d="M158.88 158.848m-1.396 2.656l.993.316m-2.383 2.34l1.984.633m-3.38 2.023l2.982.95m-4.375 1.707l3.976 1.265m-5.366 1.39l4.965 1.583m-6.36 1.08l5.96 1.898m-6.09-1.657l6.055 1.927" stroke="#000" stroke-miterlimit="10" fill="none"/><path d="M140.883 158.637l17.996.21" stroke-width="1.2" stroke="#000" stroke-miterlimit="10" fill="none"/><path d="M164.637 141.797m-2.06-2.184l-.62.836m-1.437-3.02l-1.247 1.675m-.812-3.855l-1.866 2.508m-.192-4.692l-2.492 3.348m.434-5.53l-3.114 4.182m1.055-6.363l-3.734 5.02m3.548-5.22l-3.793 5.095" stroke="#000" stroke-miterlimit="10" fill="none"/><path d="M150.2 131.05l-14.68 10.41M135.52 141.46l5.363 17.177" stroke-width="1.2" stroke="#000" stroke-miterlimit="10" fill="none"/><path d="M140.883 158.637m-3 .07l.207 1.023m-3.207-.953l.41 2.047m-3.406-1.976l.613 3.066m-3.613-2.996l.82 4.09m-3.82-4.02l1.023 5.11m-4.023-5.043l1.23 6.136m-1.504-6.127l1.25 6.226" stroke="#000" stroke-miterlimit="10" fill="none"/><path d="M140.883 158.637l-.262 8.996" stroke-width="1.2" stroke="#000" stroke-miterlimit="10" fill="none"/><path d="M140.62 167.633l-.26 8.996" stroke-width="1.2" stroke="#f00" stroke-miterlimit="10" fill="none"/><path d="M121.23 161.5l-2.878 8.523" stroke-width="1.2" stroke="#000" stroke-miterlimit="10" fill="none"/><path d="M118.352 170.023l-2.88 8.528" stroke-width="1.2" stroke="#f00" stroke-miterlimit="10" fill="none"/><path d="M125.242 162.855l-2.88 8.524" stroke-width="1.2" stroke="#000" stroke-miterlimit="10" fill="none"/><path d="M122.363 171.38l-2.88 8.526" stroke-width="1.2" stroke="#f00" stroke-miterlimit="10" fill="none"/><path d="M123.238 162.176l-11.886-13.512" stroke-width="1.2" stroke="#000" stroke-miterlimit="10" fill="none"/><path d="M109.48 173.727h8v11h-8zm0 0" fill="#fff"/><use xlink:href="#a" x="109.48" y="182.39" fill="#f00"/><path d="M111.352 148.664l-8.825 1.77" stroke-width="1.2" stroke="#000" stroke-miterlimit="10" fill="none"/><path d="M102.527 150.434l-8.824 1.77M93.703 152.203l-5.94-6.758" stroke-width="1.2" stroke="#f00" stroke-miterlimit="10" fill="none"/><path d="M87.762 145.445l-5.946-6.754" stroke-width="1.2" stroke="#000" stroke-miterlimit="10" fill="none"/><path d="M89.703 146.703h8v11h-8zm0 0" fill="#fff"/><use xlink:href="#a" x="89.703" y="155.366" fill="#f00"/><path d="M83.824 139.367l2.88-8.523" stroke-width="1.2" stroke="#000" stroke-miterlimit="10" fill="none"/><path d="M86.703 130.844l2.88-8.528" stroke-width="1.2" stroke="#f00" stroke-miterlimit="10" fill="none"/><path d="M79.813 138.012l2.878-8.524" stroke-width="1.2" stroke="#000" stroke-miterlimit="10" fill="none"/><path d="M82.69 129.488l2.88-8.527" stroke-width="1.2" stroke="#f00" stroke-miterlimit="10" fill="none"/><path d="M81.816 138.69l-17.644 3.54" stroke-width="1.2" stroke="#000" stroke-miterlimit="10" fill="none"/><path d="M83.578 116.14h8v11h-8zm0 0" fill="#fff"/><use xlink:href="#a" x="83.578" y="124.804" fill="#f00"/><path d="M64.172 142.23l-7.508 16.356M50.938 130.035L64.17 142.23M56.664 158.586l-17.875-2.09M38.79 156.496l-3.54-17.644M35.25 138.852l15.688-8.817" stroke-width="1.2" stroke="#000" stroke-miterlimit="10" fill="none"/><path d="M133.36 171.13h15v11h-15zm0 0" fill="#fff"/><g fill="#f00"><use xlink:href="#a" x="133.359" y="179.792"/><use xlink:href="#b" x="140.701" y="179.792"/></g><path d="M193.297 176.832h15v11h-15zm0 0" fill="#fff"/><g fill="#f00"><use xlink:href="#a" x="193.297" y="185.495"/><use xlink:href="#b" x="200.639" y="185.495"/></g></g></svg>
